packages/icons/src/view-grid.svg

<svg width="15" height="15" viewBox="0 0 15 15" fill="none" xmlns="http://www.w3.org/2000/svg">
  <path
    fill-rule="evenodd"
    clip-rule="evenodd"
    d="M7 2H1.5C1.22386 2 1 2.22386 1 2.5V7H7V2ZM8 2V7H14V2.5C14 2.22386 13.7761 2 13.5 2H8ZM7 8H1V12.5C1 12.7761 1.22386 13 1.5 13H7V8ZM8 13V8H14V12.5C14 12.7761 13.7761 13 13.5 13H8ZM1.5 1C0.671573 1 0 1.67157 0 2.5V12.5C0 13.3284 0.671573 14 1.5 14H13.5C14.3284 14 15 13.3284 15 12.5V2.5C15 1.67157 14.3284 1 13.5 1H1.5Z"
    fill="currentColor"
  />
</svg>

<svg xmlns="http://www.w3.org/2000/svg" width="15" height="15" fill="none"><path fill="currentColor" fill-rule="evenodd" d="M7 2H1.5a.5.5 0 0 0-.5.5V7h6zm1 0v5h6V2.5a.5.5 0 0 0-.5-.5zM7 8H1v4.5a.5.5 0 0 0 .5.5H7zm1 5V8h6v4.5a.5.5 0 0 1-.5.5zM1.5 1A1.5 1.5 0 0 0 0 2.5v10A1.5 1.5 0 0 0 1.5 14h12a1.5 1.5 0 0 0 1.5-1.5v-10A1.5 1.5 0 0 0 13.5 1z" clip-rule="evenodd"/></svg>
